X:18
T:Wedding Hymn
C:Iranian trad. song
A:Iran
S:Norman Sharp
Z:Eric Forgeot - http://anamnese.online.fr
L:1/8
M:4/4
Q:1/4=100
K:Eb
K:Cm
V:1
C | C3/2 D/2 EF | G c2 G | A3/2 G/2 F G | A2 G ||
C | C3/2 D/2 EF | G c2 d | e3/2 d/2 c d | e2 d ||
V:2


